X:111
T: DING DING THALERING
N: K2137
O: Europa, Mitteleuropa, Deutschland, Thueringen, Stotternheim
R: Kinder - Lied, Reigen, Tanz - Spiel
M: 2/4
L: 1/8
K: G
 | d2B2 | ddB
G | GABc | d2B2
ddBB | ddB
G | GABc | d2B2
ddBB | d2B2
ddBB | d2B2
dcBA | G2z2

